X:155
T:Honey Pot, The
M:6/8
L:1/8
B:Thompson's Compleat Collection of 200 Favourite Country Dances, vol. 2 (London, 1765)
Z:Transcribed and edited by Flynn Titford-Mock, 2007
Z:abc's:AK/Fiddler's Companion
K:D
gbg g2e | faf f2d | gbg ege | faf d3 :: A2G FDD | ADD BDD |
A2G FED | E2c d3 | A2G FDD | ADD BDD | agf ecA | B2c d3 :|

